X: 160
T: Zai liushu
L: 1/8
M: 2/4
K: F
c2d2 [I:setbarnb 1]| 
f g f d | 
c d c G/ A/ | 
c4 | 
G G/ A/ F E/ D/ | 
C2D F | 
C4 | 
ff2f | 
d> f d3/ f/ | 
d d G A | 
c4 | 
c c/ c/B2 | 
c c/ c/B2 | 
A fc2 | 
A DF2 | 
G G/ A/ F D | 
C2D/ C/ D/ F/ | 
C4 |]

@@@ Tune index: 9034
